!!!OTL: Richmudis von Adocht
!!!OTL-incipit:All Augen hoffen auff dich Herr,
!!!ARE: Europa, Mitteleuropa, Deutschland
!!!YOR: 5, S. 241
!!    1602 gedruckt in Graz
!!!SCT: Q1112C
!!!TXL: @@DE
!!!YEM: Copyright 1995, estate of Helmut Schaffrath.
**kern	**text
*ICvox	*
*M3/2	*
*k[b-]	*
!LO:TX:a:t=Bäumker 2. 251 nach Beuttner 1602	!
{2g	All
=1	=1
1g	Au-
2b-	-gen
=2	=2
1a	hof-
2b-	-fen
=3	=3
1cc	auff
2b-	dich,
=4	=4
1a}	Herr,
{2dd	Herr
=5	=5
1cc	Je-
2b-	-ʒu
=6	=6
1a}	Christ,
{2g	die
=7	=7
1dd	Thier
2dd	auff
=8	=8
1cc	Erdn
2a	im
=9	=9
1cc	Luſſt
2b-	vnd
=10	=10
1a}	Meer,
{2f	Herr
=11	=11
1g	Je-
2e	-su
=12	=12
(2d	Christ,
2e)	.
2f	wir
=13	=13
2g	ruſ-
2b-	-ſen
2a	dich
=14	=14
1g;}	an.
==	==
!!!AGN: geistlich
!! Melodievergleich zu Q0112A, anderes Lied. Taktart in 3/2 gedeutet.
!!!ONB: ESAC (Essen Associative Code) Database: BALLADE
!!!AMT: simple triple
!!!AIN: vox
!!!EED: Helmut Schaffrath
!!!EEV: 1.0
!!!source: Deutsche Volkslieder mit ihren Melodien Balladen. Herausgegeben vom Deutschen Volksliedarchiv. Fünfter Teil. Freiburg/Breisgau 1965.
!!!page: 241
!!!ENC: Anna Maria Matuszewska
!!!EEV: 2025/03/05
*-	*-
